X: 37342
T: Sláinte Ag An Doras
R: reel
M: 4/4
K: Dmajor
{e}~f3 d {G}~A3 F|(3GGG DG (3Bcd Gd|(3ccc Ac eA (3cBA|(3ddd Ad fAag|
fdcd AF (3DEF|G2 DG BDGd|cA (3AAA eAcA|d2 c2 d2||

